;FLAVOR:UltiGCode
;TIME:1376
;MATERIAL:2230
;MATERIAL2:0
;NOZZLE_DIAMETER:0.4
;Generated with Cura_SteamEngine 3.1.0
M82 ; absolute extrusion mode

;LAYER_COUNT:41
;LAYER:0
M107
G0 F3600 X85.053 Y97.26 Z0.3
;TYPE:SKIRT
G1 F1800 X85.578 Y96.826 E0.08174
G1 X86.15 Y96.457 E0.16342
G1 X86.762 Y96.158 E0.24516
G1 X87.404 Y95.933 E0.32679
G1 X88.069 Y95.784 E0.40857
G1 X88.997 Y95.709 E0.52029
G1 X123.997 Y95.691 E4.7203
G1 X124.908 Y95.763 E4.82996
G1 X127.998 Y96.253 E5.20539
G1 X128.663 Y96.399 E5.28709
G1 X129.307 Y96.621 E5.36883
G1 X129.723 Y96.813 E5.42381
G1 X132.512 Y98.234 E5.79943
G1 X133.1 Y98.578 E5.88118
G1 X133.643 Y98.989 E5.9629
G1 X133.98 Y99.301 E6.01801
G1 X136.19 Y101.511 E6.39306
G1 X136.643 Y102.02 E6.47483
G1 X137.032 Y102.578 E6.55645
G1 X137.257 Y102.979 E6.61163
G1 X138.678 Y105.768 E6.98724
G1 X138.951 Y106.392 E7.06898
G1 X139.149 Y107.043 E7.15063
G1 X139.238 Y107.493 E7.20568
G1 X139.728 Y110.583 E7.58111
G1 X139.795 Y111.26 E7.66275
G1 X139.783 Y111.941 E7.74448
G1 X139.728 Y112.399 E7.79983
G1 X139.238 Y115.489 E8.17527
G1 X139.092 Y116.154 E8.25697
G1 X138.87 Y116.798 E8.33871
G1 X138.678 Y117.214 E8.39369
G1 X137.257 Y120.003 E8.76931
G1 X136.913 Y120.591 E8.85106
G1 X136.502 Y121.134 E8.93278
G1 X136.19 Y121.471 E8.98789
G1 X133.98 Y123.681 E9.36294
G1 X133.471 Y124.134 E9.4447
G1 X132.913 Y124.523 E9.52633
G1 X132.512 Y124.748 E9.58151
G1 X129.723 Y126.169 E9.95712
G1 X129.099 Y126.442 E10.03885
G1 X128.448 Y126.64 E10.12051
G1 X128.031 Y126.724 E10.17155
G1 X124.941 Y127.232 E10.54733
G1 X124 Y127.309 E10.66063
G1 X89 Y127.309 E14.86063
G1 X88.32 Y127.269 E14.94237
G1 X87.65 Y127.15 E15.02403
G1 X86.998 Y126.953 E15.10576
G1 X86.374 Y126.681 E15.18745
G1 X85.786 Y126.337 E15.26919
G1 X85.242 Y125.927 E15.35094
G1 X84.751 Y125.456 E15.43258
G1 X84.317 Y124.931 E15.51432
G1 X83.948 Y124.359 E15.59601
G1 X83.649 Y123.747 E15.67774
G1 X83.424 Y123.105 E15.75938
G1 X83.275 Y122.44 E15.84116
G1 X83.2 Y121.509 E15.95324
G1 X83.2 Y101.509 E18.35324
G1 X83.24 Y100.829 E18.43498
G1 X83.359 Y100.159 E18.51664
G1 X83.556 Y99.507 E18.59837
G1 X83.828 Y98.883 E18.68005
G1 X84.172 Y98.295 E18.7618
G1 X84.582 Y97.751 E18.84355
G1 X85.053 Y97.26 E18.92519
G0 F3600 X85.445 Y97.444
G1 F1800 X85.965 Y97.043 E19.00399
G1 X86.529 Y96.707 E19.08277
G1 X87.131 Y96.443 E19.16165
G1 X87.76 Y96.253 E19.2405
G1 X88.407 Y96.142 E19.31928
G1 X88.997 Y96.109 E19.39019
G1 X123.997 Y96.091 E23.59019
G1 X124.846 Y96.158 E23.69238
G1 X127.936 Y96.648 E24.06782
G1 X128.577 Y96.79 E24.1466
G1 X129.197 Y97.009 E24.22551
G1 X129.541 Y97.17 E24.27108
G1 X132.33 Y98.591 E24.6467
G1 X132.897 Y98.924 E24.72561
G1 X133.418 Y99.323 E24.80436
G1 X133.697 Y99.584 E24.8502
G1 X135.907 Y101.794 E25.22525
G1 X136.343 Y102.286 E25.30414
G1 X136.715 Y102.827 E25.38292
G1 X136.9 Y103.161 E25.42874
G1 X138.321 Y105.95 E25.80436
G1 X138.584 Y106.552 E25.88319
G1 X138.771 Y107.182 E25.96205
G1 X138.843 Y107.555 E26.00764
G1 X139.333 Y110.645 E26.38307
G1 X139.397 Y111.299 E26.46193
G1 X139.38 Y111.956 E26.54079
G1 X139.333 Y112.337 E26.58686
G1 X138.843 Y115.427 E26.96229
G1 X138.701 Y116.068 E27.04108
G1 X138.482 Y116.688 E27.11998
G1 X138.321 Y117.032 E27.16556
G1 X136.9 Y119.821 E27.54118
G1 X136.567 Y120.388 E27.62008
G1 X136.168 Y120.909 E27.69883
G1 X135.907 Y121.188 E27.74468
G1 X133.697 Y123.398 E28.11973
G1 X133.205 Y123.834 E28.19861
G1 X132.664 Y124.206 E28.2774
G1 X132.33 Y124.391 E28.32322
G1 X129.541 Y125.812 E28.69883
G1 X128.939 Y126.075 E28.77767
G1 X128.309 Y126.262 E28.85653
G1 X127.966 Y126.329 E28.89846
G1 X124.876 Y126.837 E29.27424
G1 X124 Y126.909 E29.37972
G1 X89 Y126.909 E33.57972
G1 X88.344 Y126.869 E33.65858
G1 X87.698 Y126.75 E33.73741
G1 X87.071 Y126.553 E33.81627
G1 X86.473 Y126.281 E33.89511
G1 X85.912 Y125.939 E33.97395
G1 X85.397 Y125.531 E34.05279
G1 X84.935 Y125.064 E34.13162
G1 X84.534 Y124.544 E34.21042
G1 X84.198 Y123.98 E34.2892
G1 X83.934 Y123.378 E34.36808
G1 X83.744 Y122.749 E34.44693
G1 X83.633 Y122.102 E34.52571
G1 X83.6 Y121.509 E34.59698
G1 X83.6 Y101.509 E36.99698
G1 X83.64 Y100.853 E37.07584
G1 X83.759 Y100.207 E37.15467
G1 X83.956 Y99.58 E37.23353
G1 X84.228 Y98.982 E37.31237
G1 X84.57 Y98.421 E37.39121
G1 X84.978 Y97.906 E37.47005
G1 X85.445 Y97.444 E37.54888
G0 F3600 X85.373 Y98.068
G1 F1800 X85.836 Y97.638 E37.62471
G1 X86.35 Y97.269 E37.70064
G1 X86.906 Y96.969 E37.77645
G1 X87.495 Y96.741 E37.85224
G1 X88.109 Y96.589 E37.92815
G1 X88.997 Y96.509 E38.03514
G1 X123.997 Y96.491 E42.23514
G1 X124.783 Y96.553 E42.32975
G1 X127.873 Y97.043 E42.70518
G1 X128.49 Y97.181 E42.78105
G1 X129.36 Y97.526 E42.89336
G1 X132.149 Y98.947 E43.26898
G1 X132.693 Y99.269 E43.34484
G1 X133.415 Y99.866 E43.45726
G1 X135.625 Y102.076 E43.83231
G1 X136.042 Y102.551 E43.90816
G1 X136.544 Y103.342 E44.02058
G1 X137.965 Y106.131 E44.3962
G1 X138.216 Y106.711 E44.47203
G1 X138.448 Y107.618 E44.58438
G1 X138.938 Y110.708 E44.95981
G1 X138.998 Y111.337 E45.03563
G1 X138.938 Y112.274 E45.1483
G1 X138.448 Y115.364 E45.52374
G1 X138.31 Y115.981 E45.59961
G1 X137.965 Y116.851 E45.71192
G1 X136.544 Y119.64 E46.08753
G1 X136.222 Y120.184 E46.16339
G1 X135.625 Y120.906 E46.27581
G1 X133.415 Y123.116 E46.65086
G1 X132.94 Y123.533 E46.72671
G1 X132.149 Y124.035 E46.83913
G1 X129.36 Y125.456 E47.21475
G1 X128.78 Y125.707 E47.29059
G1 X127.901 Y125.935 E47.39956
G1 X124.811 Y126.443 E47.77534
G1 X124 Y126.509 E47.87298
G1 X89 Y126.509 E52.07298
G1 X88.369 Y126.469 E52.14885
G1 X87.748 Y126.35 E52.22473
G1 X87.148 Y126.153 E52.30051
G1 X86.576 Y125.882 E52.37646
G1 X86.044 Y125.542 E52.45222
G1 X85.559 Y125.136 E52.52813
G1 X85.129 Y124.673 E52.60395
G1 X84.76 Y124.159 E52.67988
G1 X84.46 Y123.603 E52.75569
G1 X84.232 Y123.014 E52.83148
G1 X84.08 Y122.4 E52.90739
G1 X84 Y121.509 E53.01474
G1 X84 Y101.509 E55.41474
G1 X84.04 Y100.878 E55.49061
G1 X84.159 Y100.257 E55.56648
G1 X84.356 Y99.657 E55.64227
G1 X84.627 Y99.085 E55.71822
G1 X84.967 Y98.553 E55.79398
G1 X85.373 Y98.068 E55.86988
G0 F3600 X85.767 Y98.237
G1 F1800 X86.225 Y97.84 E55.94262
G1 X86.732 Y97.507 E56.01541
G1 X87.278 Y97.243 E56.08818
G1 X87.854 Y97.054 E56.16093
G1 X88.45 Y96.942 E56.2337
G1 X88.998 Y96.909 E56.29958
G1 X123.998 Y96.891 E60.49958
G1 X124.72 Y96.948 E60.58649
G1 X127.81 Y97.438 E60.96192
G1 X128.402 Y97.572 E61.03476
G1 X129.178 Y97.882 E61.13504
G1 X131.967 Y99.303 E61.51065
G1 X132.488 Y99.614 E61.58347
G1 X133.132 Y100.149 E61.68393
G1 X135.342 Y102.359 E62.05898
G1 X135.741 Y102.815 E62.13169
G1 X136.188 Y103.524 E62.23227
G1 X137.609 Y106.313 E62.60789
G1 X137.848 Y106.87 E62.68062
G1 X138.053 Y107.681 E62.781
G1 X138.543 Y110.771 E63.15643
G1 X138.599 Y111.374 E63.22911
G1 X138.543 Y112.211 E63.32977
G1 X138.053 Y115.301 E63.7052
G1 X137.919 Y115.893 E63.77804
G1 X137.609 Y116.669 E63.87832
G1 X136.188 Y119.458 E64.25393
G1 X135.877 Y119.979 E64.32674
G1 X135.342 Y120.623 E64.42721
G1 X133.132 Y122.833 E64.80226
G1 X132.676 Y123.232 E64.87497
G1 X131.967 Y123.679 E64.97555
G1 X129.178 Y125.1 E65.35117
G1 X128.621 Y125.339 E65.4239
G1 X127.836 Y125.54 E65.52114
G1 X124.746 Y126.048 E65.89692
G1 X124 Y126.109 E65.98673
G1 X89 Y126.109 E70.18673
G1 X88.395 Y126.069 E70.25949
G1 X87.801 Y125.95 E70.33219
G1 X87.227 Y125.754 E70.40497
G1 X86.684 Y125.483 E70.4778
G1 X86.181 Y125.144 E70.55059
G1 X85.728 Y124.742 E70.62327
G1 X85.331 Y124.284 E70.696
G1 X84.998 Y123.777 E70.76879
G1 X84.734 Y123.231 E70.84157
G1 X84.545 Y122.655 E70.91431
G1 X84.433 Y122.059 E70.98708
G1 X84.4 Y121.509 E71.0532
G1 X84.4 Y101.509 E73.4532
G1 X84.44 Y100.904 E73.52596
G1 X84.559 Y100.31 E73.59866
G1 X84.755 Y99.736 E73.67144
G1 X85.026 Y99.193 E73.74427
G1 X85.365 Y98.69 E73.81705
G1 X85.767 Y98.237 E73.88973
G0 F3600 X86.16 Y98.415
G1 F1800 X86.613 Y98.053 E73.95932
G1 X87.111 Y97.758 E74.02878
G1 X87.645 Y97.533 E74.09831
G1 X88.205 Y97.385 E74.16782
G1 X88.998 Y97.309 E74.26342
G1 X123.998 Y97.291 E78.46342
G1 X124.658 Y97.343 E78.54286
G1 X127.748 Y97.833 E78.91829
G1 X128.312 Y97.963 E78.98775
G1 X128.997 Y98.239 E79.07637
G1 X131.786 Y99.66 E79.45199
G1 X132.282 Y99.958 E79.52142
G1 X132.849 Y100.432 E79.61011
G1 X135.059 Y102.642 E79.98516
G1 X135.439 Y103.079 E80.05465
G1 X135.831 Y103.705 E80.14328
G1 X137.252 Y106.494 E80.5189
G1 X137.479 Y107.027 E80.58842
G1 X137.658 Y107.743 E80.67698
G1 X138.148 Y110.833 E81.05242
G1 X138.199 Y111.41 E81.12193
G1 X138.148 Y112.149 E81.21082
G1 X137.658 Y115.239 E81.58625
G1 X137.528 Y115.803 E81.6557
G1 X137.252 Y116.488 E81.74433
G1 X135.831 Y119.277 E82.11994
G1 X135.533 Y119.773 E82.18938
G1 X135.059 Y120.34 E82.27806
G1 X132.849 Y122.55 E82.65311
G1 X132.412 Y122.93 E82.7226
G1 X131.786 Y123.322 E82.81124
G1 X128.997 Y124.743 E83.18685
G1 X128.464 Y124.97 E83.25637
G1 X127.771 Y125.145 E83.34214
G1 X124.681 Y125.653 E83.71792
G1 X124 Y125.709 E83.79992
G1 X89 Y125.709 E87.99992
G1 X88.422 Y125.669 E88.06944
G1 X87.855 Y125.55 E88.13897
G1 X87.31 Y125.354 E88.20847
G1 X86.797 Y125.085 E88.27798
G1 X86.326 Y124.748 E88.34747
G1 X85.906 Y124.349 E88.41699
G1 X85.544 Y123.896 E88.48658
G1 X85.249 Y123.398 E88.55603
G1 X85.024 Y122.864 E88.62557
G1 X84.876 Y122.304 E88.69508
G1 X84.8 Y121.509 E88.79091
G1 X84.8 Y101.509 E91.19091
G1 X84.84 Y100.931 E91.26044
G1 X84.959 Y100.364 E91.32996
G1 X85.155 Y99.819 E91.39946
G1 X85.424 Y99.306 E91.46897
G1 X85.761 Y98.835 E91.53847
G1 X86.16 Y98.415 E91.60799
G0 F3600 X86.552 Y98.603
G1 F1800 X86.998 Y98.279 E91.67414
G1 X87.486 Y98.024 E91.74021
G1 X88.006 Y97.841 E91.80636
G1 X88.547 Y97.736 E91.87249
G1 X88.998 Y97.709 E91.92671
G1 X123.998 Y97.691 E96.12671
G1 X124.595 Y97.738 E96.19857
G1 X127.685 Y98.228 E96.57401
G1 X128.222 Y98.353 E96.64017
G1 X128.815 Y98.595 E96.71703
G1 X131.604 Y100.016 E97.09264
G1 X132.076 Y100.301 E97.15881
G1 X132.566 Y100.715 E97.23578
G1 X134.776 Y102.925 E97.61083
G1 X135.136 Y103.342 E97.67694
G1 X135.475 Y103.887 E97.75396
G1 X136.896 Y106.676 E98.12958
G1 X137.11 Y107.184 E98.19573
G1 X137.263 Y107.806 E98.27259
G1 X137.753 Y110.896 E98.64802
G1 X137.8 Y111.445 E98.71414
G1 X137.753 Y112.086 E98.79127
G1 X137.263 Y115.176 E99.1667
G1 X137.138 Y115.713 E99.23287
G1 X136.896 Y116.306 E99.30972
G1 X135.475 Y119.095 E99.68534
G1 X135.19 Y119.567 E99.75151
G1 X134.776 Y120.057 E99.82848
G1 X132.566 Y122.267 E100.20353
G1 X132.149 Y122.627 E100.26964
G1 X131.604 Y122.966 E100.34666
G1 X128.815 Y124.387 E100.72228
G1 X128.307 Y124.601 E100.78842
G1 X127.706 Y124.751 E100.86276
G1 X124.616 Y125.259 E101.23853
G1 X124 Y125.309 E101.3127
G1 X89 Y125.309 E105.5127
G1 X88.45 Y125.269 E105.57887
G1 X87.912 Y125.15 E105.64499
G1 X87.397 Y124.954 E105.71112
G1 X86.916 Y124.686 E105.77719
G1 X86.478 Y124.352 E105.84329
G1 X86.094 Y123.957 E105.9094
G1 X85.77 Y123.511 E105.97555
G1 X85.515 Y123.023 E106.04162
G1 X85.332 Y122.503 E106.10777
G1 X85.227 Y121.962 E106.1739
G1 X85.2 Y121.509 E106.22836
G1 X85.2 Y101.509 E108.62836
G1 X85.24 Y100.959 E108.69453
G1 X85.359 Y100.421 E108.76065
G1 X85.555 Y99.906 E108.82678
G1 X85.823 Y99.425 E108.89285
G1 X86.157 Y98.987 E108.95895
G1 X86.552 Y98.603 E109.02506
G0 F3600 X86.552 Y99.149
G1 F1800 X86.942 Y98.803 E109.08762
G1 X87.38 Y98.52 E109.1502
G1 X87.855 Y98.307 E109.21267
G1 X88.358 Y98.17 E109.27523
G1 X88.998 Y98.109 E109.35237
G1 X123.998 Y98.091 E113.55237
G1 X124.533 Y98.133 E113.61677
G1 X127.623 Y98.623 E113.99221
G1 X128.129 Y98.744 E114.05464
G1 X128.634 Y98.952 E114.12018
G1 X131.423 Y100.373 E114.49579
G1 X131.867 Y100.644 E114.55821
G1 X132.283 Y100.998 E114.62376
G1 X134.493 Y103.208 E114.99881
G1 X134.832 Y103.604 E115.06137
G1 X135.118 Y104.068 E115.12677
G1 X136.539 Y106.857 E115.50239
G1 X136.74 Y107.339 E115.56506
G1 X136.868 Y107.868 E115.63037
G1 X137.358 Y110.958 E116.0058
G1 X137.4 Y111.478 E116.0684
G1 X137.358 Y112.024 E116.13412
G1 X136.868 Y115.114 E116.50955
G1 X136.747 Y115.62 E116.57198
G1 X136.539 Y116.125 E116.63752
G1 X135.118 Y118.914 E117.01314
G1 X134.847 Y119.358 E117.07556
G1 X134.493 Y119.774 E117.14111
G1 X132.283 Y121.984 E117.51616
G1 X131.887 Y122.323 E117.57871
G1 X131.423 Y122.609 E117.64412
G1 X128.634 Y124.03 E118.01974
G1 X128.152 Y124.231 E118.0824
G1 X127.642 Y124.356 E118.14541
G1 X124.552 Y124.864 E118.52119
G1 X124 Y124.909 E118.58765
G1 X89 Y124.909 E122.78765
G1 X88.48 Y124.869 E122.85024
G1 X87.973 Y124.75 E122.91273
G1 X87.49 Y124.555 E122.97523
G1 X87.042 Y124.289 E123.03776
G1 X86.64 Y123.957 E123.10032
G1 X86.294 Y123.567 E123.16288
G1 X86.011 Y123.129 E123.22546
G1 X85.798 Y122.654 E123.28793
G1 X85.661 Y122.151 E123.35049
G1 X85.6 Y121.509 E123.42788
G1 X85.6 Y101.509 E125.82788
G1 X85.64 Y100.989 E125.89046
G1 X85.759 Y100.482 E125.95295
G1 X85.954 Y99.999 E126.01546
G1 X86.22 Y99.551 E126.07798
G1 X86.552 Y99.149 E126.14055
G0 F3600 X86.946 Y99.322
G1 F1800 X87.329 Y99.017 E126.1993
G1 X87.757 Y98.779 E126.25806
G1 X88.217 Y98.613 E126.31675
G1 X88.698 Y98.524 E126.37545
G1 X88.998 Y98.509 E126.41149
G1 X123.998 Y98.491 E130.61149
G1 X124.47 Y98.528 E130.66831
G1 X127.56 Y99.018 E131.04374
G1 X128.035 Y99.134 E131.10242
G1 X128.452 Y99.308 E131.15664
G1 X131.241 Y100.729 E131.53225
G1 X131.657 Y100.986 E131.59093
G1 X132 Y101.281 E131.64522
G1 X134.21 Y103.491 E132.02027
G1 X134.527 Y103.864 E132.07901
G1 X134.762 Y104.25 E132.13324
G1 X136.183 Y107.039 E132.50886
G1 X136.369 Y107.492 E132.56762
G1 X136.473 Y107.931 E132.62176
G1 X136.963 Y111.021 E132.99719
G1 X137 Y111.509 E133.05592
G1 X136.963 Y111.961 E133.11034
G1 X136.473 Y115.051 E133.48578
G1 X136.357 Y115.526 E133.54445
G1 X136.183 Y115.943 E133.59867
G1 X134.762 Y118.732 E133.97429
G1 X134.505 Y119.148 E134.03297
G1 X134.21 Y119.491 E134.08726
G1 X132 Y121.701 E134.4623
G1 X131.627 Y122.018 E134.52105
G1 X131.241 Y122.253 E134.57527
G1 X128.452 Y123.674 E134.95089
G1 X127.999 Y123.86 E135.00966
G1 X127.577 Y123.961 E135.06173
G1 X124.487 Y124.469 E135.4375
G1 X124 Y124.509 E135.49614
G1 X89 Y124.509 E139.69614
G1 X88.512 Y124.469 E139.7549
G1 X88.037 Y124.35 E139.81366
G1 X87.588 Y124.156 E139.87235
G1 X87.176 Y123.891 E139.93114
G1 X86.813 Y123.563 E139.98984
G1 X86.508 Y123.18 E140.0486
G1 X86.27 Y122.752 E140.10736
G1 X86.104 Y122.292 E140.16605
G1 X86.015 Y121.811 E140.22475
G1 X86 Y121.509 E140.26103
G1 X86 Y101.509 E142.66103
G1 X86.04 Y101.021 E142.71979
G1 X86.159 Y100.546 E142.77855
G1 X86.353 Y100.097 E142.83724
G1 X86.618 Y99.685 E142.89603
G1 X86.946 Y99.322 E142.95474
G0 F3600 X87.338 Y99.509
G1 F1800 X87.713 Y99.25 E143.00943
G1 X88.127 Y99.06 E143.06409
G1 X88.568 Y98.945 E143.11878
G1 X88.999 Y98.909 E143.17068
G1 X123.999 Y98.891 E147.37068
G1 X124.407 Y98.923 E147.41979
G1 X127.497 Y99.413 E147.79522
G1 X127.939 Y99.524 E147.84991
G1 X128.27 Y99.664 E147.89304
G1 X131.059 Y101.085 E148.26865
G1 X131.446 Y101.327 E148.32343
G1 X131.717 Y101.564 E148.36663
G1 X133.927 Y103.774 E148.74168
G1 X134.22 Y104.123 E148.79636
G1 X134.406 Y104.432 E148.83964
G1 X135.827 Y107.221 E149.21525
G1 X135.997 Y107.643 E149.26985
G1 X136.078 Y107.994 E149.31308
G1 X136.568 Y111.084 E149.68851
G1 X136.6 Y111.538 E149.74312
G1 X136.568 Y111.898 E149.78649
G1 X136.078 Y114.988 E150.16193
G1 X135.967 Y115.43 E150.21662
G1 X135.827 Y115.761 E150.25974
G1 X134.406 Y118.55 E150.63536
G1 X134.164 Y118.937 E150.69013
G1 X133.927 Y119.208 E150.73333
G1 X131.717 Y121.418 E151.10838
G1 X131.368 Y121.711 E151.16306
G1 X131.059 Y121.897 E151.20634
G1 X128.27 Y123.318 E151.58196
G1 X127.848 Y123.488 E151.63655
G1 X127.512 Y123.567 E151.67797
G1 X124.422 Y124.075 E152.05375
G1 X124 Y124.109 E152.10456
G1 X89 Y124.109 E156.30456
G1 X88.546 Y124.069 E156.35925
G1 X88.106 Y123.951 E156.41391
G1 X87.694 Y123.757 E156.46856
G1 X87.321 Y123.494 E156.52333
G1 X87 Y123.171 E156.57797
G1 X86.741 Y122.796 E156.63266
G1 X86.551 Y122.382 E156.68732
G1 X86.436 Y121.941 E156.74201
G1 X86.4 Y121.509 E156.79403
G1 X86.4 Y101.509 E159.19403
G1 X86.44 Y101.055 E159.24872
G1 X86.558 Y100.615 E159.30339
G1 X86.752 Y100.203 E159.35804
G1 X87.015 Y99.83 E159.4128
G1 X87.338 Y99.509 E159.46745
